X:3769
T:Danny Doucet's Jig
R:jig
C:Brenda Stubbert, SOCAN
O:20th century Cape Breton
S:Tune of the Month, April 2001
A:http://www.capebretonisland.com/Music/Stubbert
D:Some Tasty Tunes, Brenda Stubbert, 1999
N:Contacts ...
N:Recordings and bookings
N:..... <brenda@cranfordpub.com
N:Tune books and related recordings
N:..... Cranford Publications <http://www.cranfordpub.com>
H:Copyrights:Published by Stubbert Music
Z:Paul Stewart Cranford 
Q:300
L:1/8
M:6/8
K:A
af|ecA E2 =G|FDF E2 D|CEA cBA|G B2 Baf|!
ecA E2 =G|FDF E2 d|cBA BcB|A3 A:|!
|:cd|ece aga|fdc def|ece aec|1B3 Bcd|!
ece aga|fdc def|ecA BcB|A3 A:|!
[2B3 Baf|ecA E2 =G|FDF E2 d|cBA BcB|A3 A|]!
